lib/healthicons/icons/solid/specialties/accident_and_emergency.svg

<svg fill="none" height="48" viewBox="0 0 48 48" width="48" xmlns="http://www.w3.org/2000/svg"><g fill="#333"><path d="m20.8622 19.5315c.548.0685.9367.5683.8682 1.1163l-.9047 7.2381c-.0686.5481-.5683.9368-1.1164.8683-.548-.0685-.9367-.5683-.8682-1.1163l.9048-7.2381c.0685-.5481.5683-.9368 1.1163-.8683z"/><path clip-rule="evenodd" d="m9 6c-1.65685 0-3 1.34315-3 3v30c0 1.6569 1.34315 3 3 3h30c1.6569 0 3-1.3431 3-3v-30c0-1.65685-1.3431-3-3-3zm8.4537 13.6617c.1951-1.6558 1.3924-3.048 3.0353-3.3318 2.5494-.4405 4.5909-.4365 7.0415-.0081 1.6341.2858 2.8202 1.6756 3.0143 3.3232l1.4554 12.355h-16zm-2.4535 16.3383v-2h18v2zm-1.9554-11c-.0296-.3294-.0448-.6629-.0448-1s.0152-.6706.0448-1h-3.0448v2zm.9661-5.6125c.2818-.6093.6176-1.1884 1.0015-1.7312l-2.6368-1.5223-1 1.732zm3.6454-4.3751c.5428-.3838 1.1219-.7197 1.7312-1.0015l-1.5215-2.6352-1.732 1zm5.3437-1.9676c.3294-.0296.6629-.0448 1-.0448s.6706.0152 1 .0448v-3.0448h-2zm5.6125.9661c.6093.2818 1.1884.6177 1.7312 1.0015l1.5223-2.6367-1.732-1zm4.3751 3.6454c.3839.5428.7197 1.1219 1.0015 1.7312l2.6353-1.5215-1-1.732zm1.9676 5.3437c.0296.3294.0448.6629.0448 1s-.0152.6706-.0448 1h3.0448v-2z" fill-rule="evenodd"/></g></svg>

<svg width="48" height="48" viewBox="0 0 48 48" fill="none" xmlns="http://www.w3.org/2000/svg">
<path d="M20.8622 19.5315C21.4102 19.6 21.7989 20.0998 21.7304 20.6478L20.8257 27.8859C20.7571 28.434 20.2574 28.8227 19.7093 28.7542C19.1613 28.6857 18.7726 28.1859 18.8411 27.6379L19.7459 20.3998C19.8144 19.8517 20.3142 19.463 20.8622 19.5315Z" fill="#333333"/>
<path fill-rule="evenodd" clip-rule="evenodd" d="M9 6C7.34315 6 6 7.34315 6 9V39C6 40.6569 7.34315 42 9 42H39C40.6569 42 42 40.6569 42 39V9C42 7.34315 40.6569 6 39 6H9ZM17.4537 19.6617C17.6488 18.0059 18.8461 16.6137 20.489 16.3299C23.0384 15.8894 25.0799 15.8934 27.5305 16.3218C29.1646 16.6076 30.3507 17.9974 30.5448 19.645L32.0002 32H16.0002L17.4537 19.6617ZM15.0002 36V34H33.0002V36H15.0002ZM13.0448 25C13.0152 24.6706 13 24.3371 13 24C13 23.6629 13.0152 23.3294 13.0448 23H10V25H13.0448ZM14.0109 19.3875C14.2927 18.7782 14.6285 18.1991 15.0124 17.6563L12.3756 16.134L11.3756 17.866L14.0109 19.3875ZM17.6563 15.0124C18.1991 14.6286 18.7782 14.2927 19.3875 14.0109L17.866 11.3757L16.134 12.3757L17.6563 15.0124ZM23 13.0448C23.3294 13.0152 23.6629 13 24 13C24.3371 13 24.6706 13.0152 25 13.0448V10H23V13.0448ZM28.6125 14.0109C29.2218 14.2927 29.8009 14.6286 30.3437 15.0124L31.866 12.3757L30.134 11.3757L28.6125 14.0109ZM32.9876 17.6563C33.3715 18.1991 33.7073 18.7782 33.9891 19.3875L36.6244 17.866L35.6244 16.134L32.9876 17.6563ZM34.9552 23C34.9848 23.3294 35 23.6629 35 24C35 24.3371 34.9848 24.6706 34.9552 25H38V23H34.9552Z" fill="#333333"/>
</svg>
